tela-icon-theme/src/symbolic/apps/org.gnome.Lollypop-tag-symbolic.svg

<svg width="16" height="16" version="1.1" xmlns="http://www.w3.org/2000/svg">
 <path d="m3.9948-4.0482e-4c-1.258 0.015-2.179-0.028-2.931 0.387a1.875 1.875 0 0 0-0.838 0.996c-0.165 0.437-0.225 0.96-0.225 1.617v4h0.01c-0.028 0.332 0.03 0.678 0.18 1.006 0.203 0.447 0.544 0.878 1.03 1.365l5.41 5.408c0.486 0.488 0.918 0.828 1.364 1.032 0.447 0.203 0.929 0.244 1.362 0.119 0.865-0.25 1.514-0.966 2.457-1.887l2e-3 -4e-3 2.228-2.227v-2e-3c0.921-0.943 1.635-1.591 1.885-2.457a1.966 1.966 0 0 0-0.117-1.359c-0.203-0.447-0.544-0.878-1.031-1.365l-5.41-5.409c-0.486-0.487-0.917-0.828-1.364-1.031a2.015 2.015 0 0 0-1.006-0.182v-7e-3h-3.004zm6e-3 1h3s0.335 0.035 0.572 0.143c0.265 0.12 0.618 0.381 1.057 0.82l5.41 5.408c0.439 0.439 0.698 0.792 0.818 1.057 0.12 0.265 0.126 0.424 0.065 0.635-0.122 0.42-0.704 1.07-1.625 2.013l-4e-3 4e-3 -2.219 2.217c-0.943 0.921-1.59 1.503-2.012 1.625-0.21 0.06-0.37 0.056-0.634-0.064-0.265-0.12-0.618-0.38-1.057-0.819l-5.41-5.41c-0.439-0.439-0.698-0.79-0.818-1.055-0.108-0.237-0.143-0.574-0.143-0.574v-4c0-0.592 0.063-1.006 0.16-1.266 0.098-0.26 0.202-0.371 0.385-0.472 0.365-0.202 1.195-0.247 2.455-0.262zm-1.05 1.002a1 1 0 0 0-0.948 1.049 1 1 0 0 0 1.049 0.947 1 1 0 0 0 0.947-1.049 1 1 0 0 0-1.049-0.947z" color="#000000" fill="#5d656b" font-family="sans-serif" font-weight="400" overflow="visible" solid-color="#000000" style="font-feature-settings:normal;font-variant-alternates:normal;font-variant-caps:normal;font-variant-ligatures:normal;font-variant-numeric:normal;font-variant-position:normal;isolation:auto;mix-blend-mode:normal;shape-padding:0;text-decoration-color:#000000;text-decoration-line:none;text-decoration-style:solid;text-indent:0;text-orientation:mixed;text-transform:none;white-space:normal"/>
</svg>

<svg height="16" width="16" xmlns="http://www.w3.org/2000/svg"><path d="M3.994 0C2.736.015 1.815-.028 1.063.387a1.875 1.875 0 00-.838.996C.06 1.82 0 2.343 0 3v4h.01c-.028.332.03.678.18 1.006.203.447.544.878 1.03 1.365l5.41 5.408c.486.488.918.828 1.364 1.032.447.203.929.244 1.362.119.865-.25 1.514-.966 2.457-1.887l.002-.004 2.228-2.227v-.002c.921-.943 1.635-1.591 1.885-2.457a1.966 1.966 0 00-.117-1.359c-.203-.447-.544-.878-1.031-1.365L9.37 1.22C8.884.733 8.453.392 8.006.189A2.015 2.015 0 007 .007V0H3.996zM4 1h3s.335.035.572.143c.265.12.618.381 1.057.82l5.41 5.408c.439.439.698.792.818 1.057.12.265.126.424.065.635-.122.42-.704 1.07-1.625 2.013l-.004.004-2.219 2.217c-.943.921-1.59 1.503-2.012 1.625-.21.06-.37.056-.634-.064-.265-.12-.618-.38-1.057-.819l-5.41-5.41c-.439-.439-.698-.79-.818-1.055C1.035 7.337 1 7 1 7V3c0-.592.063-1.006.16-1.266.098-.26.202-.371.385-.472C1.91 1.06 2.74 1.015 4 1zM2.95 2.002a1 1 0 00-.948 1.049 1 1 0 001.049.947 1 1 0 00.947-1.049 1 1 0 00-1.049-.947z" style="line-height:normal;font-variant-ligatures:normal;font-variant-position:normal;font-variant-caps:normal;font-variant-numeric:normal;font-variant-alternates:normal;font-feature-settings:normal;text-indent:0;text-align:start;text-decoration-line:none;text-decoration-style:solid;text-decoration-color:#000;text-transform:none;text-orientation:mixed;white-space:normal;shape-padding:0;isolation:auto;mix-blend-mode:normal;solid-color:#000;solid-opacity:1;marker:none" color="#000" font-weight="400" font-family="sans-serif" overflow="visible" fill="#5d656b"/></svg>
